X: 3
T: Green Linnet, The 
M: 4/4
L: 1/8
R: reel
K: Amin
|: Bc |\
A2 ae cB A/B/c | BG B/c/d gd c/B/G | A2 ae cBAc | BGdB fc :|
|: d/c/B |\
|: A2 B/c/d ecBA | BGDd gdBG |[1 ABcd ecBc | BGdB f2 :|[2 Ac B/c/d cedf | edBc A2 |]
